X:1
T:Stille Nacht
T:Stille Nacht
%%score { 1 | 2 }
L:1/8
Q:3/8=40
M:6/8
K:C
V:1 treble nm="Klavier" snm="Flgl."
V:2 bass 
V:1
 G>AG E3 | G>AG E3 | d2 d B3 | c2 c G3 | A2 A c>BA | G>AG E3 | A2 A c>BA | G>AG E3 | ddd f>dB | %9
 c3 e2 z | cGE G>FD | C3- C2 z |] %12
V:2
 C,E,G, C,E,G, | C,E,G, C,E,G, | B,,D,G, B,,D,G, | C,E,G, C,E,G, | F,,C,F, F,,C,F, | %5
 C,E,G, C,E,G, | F,,C,F, F,,C,F, | C,E,G, C,E,G, | B,,D,G, B,,D,G, | C,E,G, C,E,G, | %10
 C,E,G, B,,D,G, | C,E,G, C,2 z |] %12

